public/images/companies/logo-reputami.svg

<svg width="52" height="64" viewBox="0 0 52 64" fill="none" xmlns="http://www.w3.org/2000/svg">
<path fill-rule="evenodd" clip-rule="evenodd" d="M25.9992 0C40.359 0 52 11.5913 52 25.889C52 31.9323 49.9155 37.4879 46.4304 41.8928L46.4417 41.8897L30.8274 61.6617C29.6974 63.0826 27.9583 64 26.0008 64C24.0916 64 22.3857 63.1315 21.2603 61.7701L5.53029 41.8544C2.07169 37.4525 0 31.9127 0 25.889C0 11.5913 11.6403 0 25.9992 0ZM25.9992 6.4C15.207 6.4 6.42669 15.1428 6.42669 25.889C6.42669 30.2871 7.86802 34.4406 10.5935 37.8995C10.6555 37.9786 10.7152 38.0583 10.7726 38.1396L26.0008 57.4194L41.1994 38.175C41.2576 38.0929 41.3188 38.0124 41.3816 37.9326C44.1229 34.4662 45.5726 30.3014 45.5726 25.889C45.5726 15.1428 36.7923 6.4 25.9992 6.4ZM24.8614 17.2097C25.4879 15.8438 26.5113 15.8438 27.1364 17.2097L29.4401 22.009H34.2569C35.7723 22.009 36.2031 22.9346 35.213 24.071L35.1782 24.1154L31.5042 28.5422L33.3696 33.9615C33.8586 35.3794 33.1534 35.9928 31.7937 35.3192L26.0004 32.4481L20.2033 35.3192C18.8504 35.9928 18.1429 35.3794 18.6304 33.9615L20.4965 28.5422L16.8248 24.1154L16.7878 24.071C15.7969 22.9346 16.2277 22.009 17.7424 22.009H22.5614L24.8614 17.2097Z" fill="#334155"/>
</svg>

<svg xmlns="http://www.w3.org/2000/svg" width="52" height="64" fill="currentColor" viewBox="0 0 52 64">
  <path fill-rule="evenodd" d="M26 0c14.359 0 26 11.591 26 25.889a25.701 25.701 0 0 1-5.57 16.004l.012-.003-15.615 19.772a6.154 6.154 0 0 1-9.567.108L5.53 41.854A25.754 25.754 0 0 1 0 25.89C0 11.591 11.64 0 26 0Zm0 6.4c-10.793 0-19.573 8.743-19.573 19.489 0 4.398 1.441 8.552 4.167 12.01.062.08.121.16.179.24L26 57.42l15.198-19.244a6.06 6.06 0 0 1 .183-.242 19.235 19.235 0 0 0 4.19-12.044C45.573 15.143 36.793 6.4 26 6.4Zm-1.14 10.81c.627-1.366 1.65-1.366 2.275 0l2.304 4.799h4.817c1.515 0 1.946.926.956 2.062l-.035.044-3.674 4.427 1.866 5.42c.489 1.417-.217 2.03-1.576 1.357L26 32.45l-5.797 2.87c-1.353.674-2.06.06-1.573-1.358l1.867-5.419-3.672-4.427-.037-.044c-.991-1.136-.56-2.062.954-2.062h4.82l2.3-4.8Z" clip-rule="evenodd"/>
</svg>
